X:1
T:[ID 6-64]
T:[ID 6-64]
T:Bezeichnung standardisiert: Menuett Menuet 2.
T:Urheber unbekannt Datum in der hier transkribierten schriftlichen Quelle: 1775
C:Urheber unbekannt
C:Datum in der hier transkribierten schriftlichen Quelle: 1775
L:1/8
M:3/4
K:A
V:1 treble 
V:1
 c4 cA | Bd c4 | ED C2 B,2 | C6 | AcBd c2 | AcBd c2 | B/A/G/F/ E2 F2 | G6 :: A4 GF | Bc d4 | %10
 B4 AG | AB c4 | C2 C2 CA, | C2 C2 EG | (3AGF E2 D2 | C6 :| %16

